polaris-icons/icons/new-icons/ReturnMinor.svg

<svg width="20" height="20" viewBox="0 0 20 20" fill="none" xmlns="http://www.w3.org/2000/svg">
<path d="M10.75 12C10.991 12 11.0844 11.9998 11.1595 11.9961C12.829 11.9141 14.1641 10.579 14.2461 8.90947C14.2498 8.83442 14.25 8.74104 14.25 8.5C14.25 8.25897 14.2498 8.16558 14.2461 8.09053C14.1641 6.42099 12.829 5.08594 11.1595 5.00392C11.0844 5.00023 10.991 5 10.75 5H9.25C8.83579 5 8.5 4.66421 8.5 4.25C8.5 3.83579 8.83579 3.5 9.25 3.5H10.7738C10.9832 3.49999 11.1163 3.49999 11.2331 3.50572C13.6732 3.6256 15.6244 5.57684 15.7443 8.01693C15.75 8.13366 15.75 8.26679 15.75 8.47618V8.52383C15.75 8.73321 15.75 8.86634 15.7443 8.98307C15.6244 11.4232 13.6732 13.3744 11.2331 13.4943C11.1163 13.5 10.9832 13.5 10.7738 13.5L6.81066 13.5L8.53033 15.2197C8.82322 15.5126 8.82322 15.9874 8.53033 16.2803C8.23744 16.5732 7.76256 16.5732 7.46967 16.2803L4.46967 13.2803C4.17678 12.9874 4.17678 12.5126 4.46967 12.2197L7.46967 9.21967C7.76256 8.92678 8.23744 8.92678 8.53033 9.21967C8.82322 9.51256 8.82322 9.98744 8.53033 10.2803L6.81066 12H10.75Z" fill="#4A4A4A"/>
</svg>

<svg viewBox="0 0 20 20" xmlns="http://www.w3.org/2000/svg"><path d="M10.75 12c.241 0 .334 0 .41-.004a3.25 3.25 0 0 0 3.086-3.087c.004-.075.004-.168.004-.409 0-.241 0-.334-.004-.41a3.25 3.25 0 0 0-3.087-3.086 9.616 9.616 0 0 0-.409-.004h-1.5a.75.75 0 0 1 0-1.5h1.524c.21 0 .342 0 .46.006a4.75 4.75 0 0 1 4.51 4.51c.006.118.006.25.006.46v.048c0 .21 0 .342-.006.46a4.75 4.75 0 0 1-4.51 4.51c-.118.006-.25.006-.46.006h-3.963l1.72 1.72a.75.75 0 1 1-1.061 1.06l-3-3a.75.75 0 0 1 0-1.06l3-3a.75.75 0 0 1 1.06 1.06l-1.72 1.72h3.94Z" fill="#5C5F62"/></svg>
